map_marker_monochrome/openmoji_coffee_grinder.svg

<svg xmlns="http://www.w3.org/2000/svg" width="24" height="24" viewBox="0 0 24 24"> <g transform="translate(1.4147939427922527 0.0) scale(0.4704536025425665)">
  
  <g
     id="line"
     transform="translate(-11,-9.9854032)">
    <path
       fill="none"
       stroke="#000"
       stroke-linecap="round"
       stroke-linejoin="round"
       stroke-width="2"
       d="M 41,53.7941 52,51.2059"
       id="path2" />
    <path
       fill="none"
       stroke="#000"
       stroke-width="2"
       d="m 38,21 c 0,-1.1046 0.8954,-2 2,-2 h 13 c 1.1046,0 2,0.8954 2,2 v 37 c 0,1.1046 -0.8954,2 -2,2 H 40 c -1.1046,0 -2,-0.8954 -2,-2 z"
       id="path4" />
    <rect
       x="44"
       y="14"
       width="5"
       height="5"
       fill="none"
       stroke="#000"
       stroke-linejoin="round"
       stroke-width="2"
       id="rect6" />
    <path
       fill="none"
       stroke="#000"
       stroke-linejoin="round"
       stroke-width="2"
       d="M 44,16 H 38 L 23,25 H 17 V 22"
       id="path8" />
    <path
       fill="none"
       stroke="#000"
       stroke-width="2"
       d="M 22,13.5283 C 22,16.5557 19.7614,22 17,22 c -2.7614,0 -5,-5.4443 -5,-8.4717 0,-3.0275 2.2386,-2.4917 5,-2.4917 2.7614,0 5,-0.5358 5,2.4917 z"
       id="path10" />
    <line
       x1="39"
       x2="52"
       y1="41"
       y2="41"
       stroke="#000"
       stroke-linecap="round"
       stroke-width="2"
       id="line12" />
  </g>
</g></svg>

<svg xmlns="http://www.w3.org/2000/svg" width="24" height="24" viewBox="0 0 24 24"> <g transform="scale(0.333333333)">  <g id="line">
    <path fill="none" stroke="#000" stroke-linecap="round" stroke-linejoin="round" stroke-width="2" d="M41 53.7941L52 51.2059"/>
    <path fill="none" stroke="#000" stroke-width="2" d="M38 21C38 19.8954 38.8954 19 40 19H53C54.1046 19 55 19.8954 55 21V58C55 59.1046 54.1046 60 53 60H40C38.8954 60 38 59.1046 38 58V21Z"/>
    <rect x="44" y="14" width="5" height="5" fill="none" stroke="#000" stroke-linejoin="round" stroke-width="2"/>
    <path fill="none" stroke="#000" stroke-linejoin="round" stroke-width="2" d="M44 16H38L23 25H17V22"/>
    <path fill="none" stroke="#000" stroke-width="2" d="M22 13.5283C22 16.5557 19.7614 22 17 22C14.2386 22 12 16.5557 12 13.5283C12 10.5008 14.2386 11.0366 17 11.0366C19.7614 11.0366 22 10.5008 22 13.5283Z"/>
    <line x1="39" x2="52" y1="41" y2="41" stroke="#000" stroke-linecap="round" stroke-width="2"/>
  </g></g></svg>
